Assets/ico-media.svg

<svg width="24" height="24" viewBox="0 0 24 24" fill="none" xmlns="http://www.w3.org/2000/svg">
<path d="M3 4C1.34315 4 0 5.34315 0 7V17C0 18.6569 1.34315 20 3 20H13C14.6569 20 16 18.6569 16 17V14.5307L20.7286 18.4249C22.0334 19.4994 24.0001 18.5713 24.0001 16.8811V7.28972C24.0001 5.54447 21.9211 4.63648 20.6408 5.8226L16 10.1222V7C16 5.34315 14.6569 4 13 4H3Z" fill="#61666D"/>
</svg>

<svg xmlns="http://www.w3.org/2000/svg" width="24" height="24" fill="none" viewBox="0 0 24 24"><path fill="#61666d" d="M3 4a3 3 0 0 0-3 3v10a3 3 0 0 0 3 3h10a3 3 0 0 0 3-3v-2.47l4.729 3.895C22.033 19.499 24 18.57 24 16.88V7.29c0-1.746-2.079-2.654-3.36-1.467l-4.64 4.3V7a3 3 0 0 0-3-3z"/></svg>
